src/assets/clients/nolia.svg

<svg width="493" height="119" viewBox="0 0 493 119" fill="none" xmlns="http://www.w3.org/2000/svg">
<g clip-path="url(#clip0_1_184)">
<path d="M176.826 100.771C153.756 100.771 135.066 82.2913 135.066 59.4813C135.066 36.6713 153.766 18.1913 176.826 18.1913C199.896 18.1913 218.596 36.6813 218.596 59.4813C218.596 82.2813 199.896 100.771 176.826 100.771ZM176.826 0.0913086C143.646 0.0913086 116.746 26.6813 116.746 59.4813C116.746 92.2813 143.646 118.871 176.826 118.871C210.006 118.871 236.906 92.2813 236.906 59.4813C236.906 26.6813 210.006 0.0913086 176.826 0.0913086Z" fill="#EB663C"/>
<path d="M193.105 59.4814C193.105 68.3614 185.815 75.5714 176.835 75.5714C167.845 75.5714 160.565 68.3614 160.565 59.4814C160.565 50.6014 167.855 43.4014 176.835 43.4014C185.815 43.4014 193.105 50.6014 193.105 59.4814Z" fill="#EB663C"/>
<path d="M18.5357 15.2714V15.2314H0.385742V107.391H18.5357V41.7214L78.7357 107.341V107.391H78.7757L78.7857 107.401V107.391H96.8757V15.2314H78.7357V80.6414L18.6557 15.1514L18.5357 15.2714Z" fill="#EB663C"/>
<path d="M272.866 90.6012V15.2412H254.716V107.401V107.411H331.826V90.6012H272.866Z" fill="#EB663C"/>
<path d="M368.306 15.2312H350.166V107.391H368.306V15.2312Z" fill="#EB663C"/>
<path d="M439.696 33.7314L454.326 66.1814H425.076L439.696 33.7314ZM428.206 15.1514L386.616 107.411H406.486L417.486 82.9914H461.896L472.906 107.411H492.766L451.186 15.1514H428.206Z" fill="#EB663C"/>
</g>
<defs>
<clipPath id="clip0_1_184">
<rect width="492.39" height="118.78" fill="white" transform="translate(0.385742 0.0913086)"/>
</clipPath>
</defs>
</svg>

<svg xmlns="http://www.w3.org/2000/svg" fill="none" viewBox="0 0 493 119"><g fill="#EB663C" clip-path="url(#a)"><path d="M176.826 100.771c-23.07 0-41.76-18.48-41.76-41.29s18.7-41.29 41.76-41.29c23.07 0 41.77 18.49 41.77 41.29s-18.7 41.29-41.77 41.29Zm0-100.68c-33.18 0-60.08 26.59-60.08 59.39s26.9 59.39 60.08 59.39 60.08-26.59 60.08-59.39-26.9-59.39-60.08-59.39Z"/><path d="M193.105 59.481c0 8.88-7.29 16.09-16.27 16.09-8.99 0-16.27-7.21-16.27-16.09 0-8.88 7.29-16.08 16.27-16.08s16.27 7.2 16.27 16.08ZM18.536 15.271v-.04H.386v92.16h18.15v-65.67l60.2 65.62v.05h.04l.01.01v-.01h18.09v-92.16h-18.14v65.41l-60.08-65.49-.12.12ZM272.866 90.601v-75.36h-18.15v92.17h77.11v-16.81h-58.96ZM368.306 15.231h-18.14v92.16h18.14v-92.16ZM439.696 33.731l14.63 32.45h-29.25l14.62-32.45Zm-11.49-18.58-41.59 92.26h19.87l11-24.42h44.41l11.01 24.42h19.86l-41.58-92.26h-22.98Z"/></g><defs><clipPath id="a"><path fill="#fff" d="M.386.091h492.39v118.78H.386z"/></clipPath></defs></svg>
